X: 151
T: Assembly of Lovers
B: 204 Favourite Country Dances
N: Published by Straight & Skillern, London ca.1775
F: http://imslp.org/wiki/204_Favourite_Country_Dances_(Various) p.76 #151
Z: 2014 John Chambers <jc:trillian.mit.edu>
N: There's an extra beat at all strain boundaries; not fixed.
M: C
L: 1/8
K: Bb
% - - - - - - - - - - - - - - - - - - - - - - - - -
FE |\
DF BF EG cG | DF BF d2 FE |\
DF BF EG Be | dB Ac B2 B,2 :|
|: Bc |\
dB fB gB fB | dB ed cA GF |\
DF BF EG Be | dc Ac B2 B,2 :|
% - - - - - - - - - - - - - - - - - - - - - - - - -
%%begintext align
%% Hands across .| Back again :| Gallop
%% down two Cu. .|: Lead up and Cast off :|:
%% Set Corners and turn :|| Lead outsides
%% and turn :||:
%%endtext

%%sep 1 1 500
%%sep 1 1 500
